assets/Acme-Logo.svg

<svg xmlns="http://www.w3.org/2000/svg" xmlns:xlink="http://www.w3.org/1999/xlink" width="160" height="43" viewBox="0 0 160 43">
  <defs>
    <style>
      .cls-1 {
        clip-path: url(#clip-acme-logo);
      }

      .cls-2 {
        fill: #555d66;
      }

      .cls-3 {
        fill: rgba(255,255,255,0);
      }
    </style>
    <clipPath id="clip-acme-logo">
      <rect width="160" height="43"/>
    </clipPath>
  </defs>
  <g id="acme-logo" class="cls-1">
    <rect class="cls-3" width="160" height="43"/>
    <path id="Path_10" data-name="Path 10" class="cls-2" d="M24.938-19.49H29.12l-1.884-5.934H14.328L12.445-19.49h4.432v7.458H.949V-19.49h3.13L15.519-53.3H26.627L37.818-19.49h3.047v7.458H24.938Zm-8.421-12.9h8.476L20.727-45.811Zm46.428,1.905a8.28,8.28,0,0,0-2.659-2.218,6.7,6.7,0,0,0-3.463-.64,6.415,6.415,0,0,0-2.922.436,6.723,6.723,0,0,0-2.271,1.524,6.871,6.871,0,0,0-1.482,2.327,8.286,8.286,0,0,0-.526,3.035,7.306,7.306,0,0,0,.554,2.831,7.108,7.108,0,0,0,1.51,2.3,6.824,6.824,0,0,0,2.271,1.511,9.119,9.119,0,0,0,2.867.653,8.287,8.287,0,0,0,2.368-.531,7.3,7.3,0,0,0,1.9-1.089,7.587,7.587,0,0,0,1.427-1.5,9.3,9.3,0,0,0,.928-1.565l7.618,2.069a12.845,12.845,0,0,1-1.62,3.4,13.509,13.509,0,0,1-2.992,3.226A16.176,16.176,0,0,1,62.072-12.3a16.337,16.337,0,0,1-5.775.953,15.274,15.274,0,0,1-6.066-1.184,14.6,14.6,0,0,1-4.764-3.226,14.754,14.754,0,0,1-3.116-4.791,15.482,15.482,0,0,1-1.122-5.907,14.591,14.591,0,0,1,1.15-5.811,14.62,14.62,0,0,1,3.172-4.682,14.325,14.325,0,0,1,4.806-3.117,14.77,14.77,0,0,1,6.052-1.007,13.937,13.937,0,0,1,4.515.517,15.792,15.792,0,0,1,4.155,1.878H70.59v8.193Zm8.977-9.745h13.13v2.45a14.619,14.619,0,0,1,3.989-2.2,13.117,13.117,0,0,1,4.571-.817,12.8,12.8,0,0,1,5.609,1.13,8.336,8.336,0,0,1,3.67,3.443,13.257,13.257,0,0,1,2.064-1.837,15.3,15.3,0,0,1,2.451-1.443,14.047,14.047,0,0,1,2.728-.953,12.553,12.553,0,0,1,2.922-.34q5.263,0,8.088,2.858t2.825,8.356v10.1h4.072v7.458h-13.1V-28.2a5.316,5.316,0,0,0-1.26-3.756,4.539,4.539,0,0,0-3.5-1.361,6.187,6.187,0,0,0-2.922.721,8.734,8.734,0,0,0-2.728,2.491q.028.3.028.612v10h4.155v7.458h-13.1V-28.255a5.664,5.664,0,0,0-.36-2.069,4.638,4.638,0,0,0-1-1.579,4.55,4.55,0,0,0-1.51-1.021,5.269,5.269,0,0,0-1.925-.395,6.989,6.989,0,0,0-2.867.6,7.507,7.507,0,0,0-2.839,2.314V-19.49h4.6v7.458H71.866V-19.49h4.266V-32.773h-4.21ZM136.77-24.362l.083.844a5.58,5.58,0,0,0,1.039,2.15,6.829,6.829,0,0,0,1.731,1.552,7.775,7.775,0,0,0,2.216.939,9.872,9.872,0,0,0,2.465.313,17.913,17.913,0,0,0,2.368-.15,20.445,20.445,0,0,0,2.174-.408q1.053-.259,2.05-.6t2.022-.721l3.047,5.58q-1.579.953-2.895,1.62a18.784,18.784,0,0,1-2.645,1.1,16.021,16.021,0,0,1-2.825.64,26.143,26.143,0,0,1-3.49.2,17.166,17.166,0,0,1-6.648-1.211,14.246,14.246,0,0,1-4.889-3.28,14.031,14.031,0,0,1-3.019-4.845,16.64,16.64,0,0,1-1.039-5.879,15.471,15.471,0,0,1,1.094-5.825,14.306,14.306,0,0,1,3.089-4.75,14.53,14.53,0,0,1,4.764-3.2,15.648,15.648,0,0,1,6.149-1.17,15.336,15.336,0,0,1,6,1.1,12.576,12.576,0,0,1,4.418,3.049,13.572,13.572,0,0,1,2.77,4.573,17.6,17.6,0,0,1,1.053,5.648,13.414,13.414,0,0,1,.1,1.347q.014.667-.042,1.375Zm6.62-10.289a8.362,8.362,0,0,0-2.645.367,5.484,5.484,0,0,0-1.842,1.007,5.13,5.13,0,0,0-1.191,1.456,8.155,8.155,0,0,0-.692,1.715h11.994a8.753,8.753,0,0,0-.554-1.742,4.616,4.616,0,0,0-1-1.443,4.543,4.543,0,0,0-1.62-.994A7.062,7.062,0,0,0,143.39-34.651Z" transform="translate(0.051 53.297)"/>
  </g>
</svg>

<?xml version="1.0" encoding="UTF-8" standalone="no"?>
<!DOCTYPE svg PUBLIC "-//W3C//DTD SVG 1.1//EN" "http://www.w3.org/Graphics/SVG/1.1/DTD/svg11.dtd">
<svg width="100%" height="100%" viewBox="0 0 372 100" version="1.1" xmlns="http://www.w3.org/2000/svg" xmlns:xlink="http://www.w3.org/1999/xlink" xml:space="preserve" xmlns:serif="http://www.serif.com/" style="fill-rule:evenodd;clip-rule:evenodd;stroke-linejoin:round;stroke-miterlimit:2;">
    <g transform="matrix(1,0,0,1,0,-612)">
        <g id="Acme-Logo" transform="matrix(0.726562,0,0,0.195312,0,612)">
            <rect x="0" y="0" width="512" height="512" style="fill:none;"/>
            <g id="Acme" transform="matrix(3.208429,0,0,11.946735,1.084233,641.880965)">
                <path d="M24.938,-19.49L29.12,-19.49L27.236,-25.424L14.328,-25.424L12.445,-19.49L16.877,-19.49L16.877,-12.032L0.949,-12.032L0.949,-19.49L4.079,-19.49L15.519,-53.3L26.627,-53.3L37.818,-19.49L40.865,-19.49L40.865,-12.032L24.938,-12.032L24.938,-19.49ZM16.517,-32.39L24.993,-32.39L20.727,-45.811L16.517,-32.39ZM62.945,-30.485C62.225,-31.403 61.319,-32.159 60.286,-32.703C59.209,-33.221 58.014,-33.442 56.823,-33.343C55.828,-33.427 54.828,-33.278 53.901,-32.907C53.048,-32.56 52.275,-32.041 51.63,-31.383C50.984,-30.716 50.48,-29.924 50.148,-29.056C49.785,-28.086 49.606,-27.057 49.622,-26.021C49.617,-25.05 49.805,-24.087 50.176,-23.19C50.525,-22.332 51.038,-21.551 51.686,-20.89C52.334,-20.239 53.106,-19.725 53.957,-19.379C54.871,-19.008 55.839,-18.787 56.824,-18.726C57.635,-18.786 58.433,-18.965 59.192,-19.257C59.876,-19.522 60.517,-19.89 61.092,-20.346C61.634,-20.778 62.114,-21.283 62.519,-21.846C62.879,-22.336 63.19,-22.86 63.447,-23.411L71.065,-21.342C70.695,-20.135 70.149,-18.99 69.445,-17.942C68.631,-16.71 67.62,-15.621 66.453,-14.716C65.127,-13.688 63.649,-12.873 62.072,-12.3C60.22,-11.637 58.264,-11.314 56.297,-11.347C54.215,-11.324 52.151,-11.727 50.231,-12.531C48.445,-13.28 46.825,-14.376 45.467,-15.757C44.126,-17.136 43.067,-18.763 42.351,-20.548C41.595,-22.425 41.213,-24.432 41.229,-26.455C41.211,-28.45 41.602,-30.428 42.379,-32.266C43.122,-34.018 44.199,-35.609 45.551,-36.948C46.927,-38.3 48.562,-39.36 50.357,-40.065C52.282,-40.821 54.343,-41.164 56.409,-41.072C57.932,-41.148 59.457,-40.973 60.924,-40.555C62.393,-40.133 63.792,-39.501 65.079,-38.677L70.59,-38.677L70.59,-30.484L62.945,-30.485ZM71.922,-40.23L85.052,-40.23L85.052,-37.78C86.259,-38.717 87.605,-39.46 89.041,-39.98C90.504,-40.522 92.052,-40.799 93.612,-40.797C95.543,-40.848 97.461,-40.462 99.221,-39.667C100.77,-38.925 102.052,-37.722 102.891,-36.224C103.513,-36.907 104.205,-37.522 104.955,-38.061C105.725,-38.617 106.546,-39.1 107.406,-39.504C108.28,-39.915 109.194,-40.234 110.134,-40.457C111.091,-40.684 112.072,-40.799 113.056,-40.797C116.565,-40.797 119.261,-39.844 121.144,-37.939C123.027,-36.034 123.969,-33.248 123.969,-29.583L123.969,-19.483L128.041,-19.483L128.041,-12.025L114.941,-12.025L114.941,-28.2C115.021,-29.567 114.569,-30.913 113.681,-31.956C112.766,-32.893 111.489,-33.39 110.181,-33.317C109.163,-33.321 108.159,-33.073 107.259,-32.596C106.182,-31.97 105.252,-31.12 104.531,-30.105C104.55,-29.905 104.559,-29.701 104.559,-29.493L104.559,-19.493L108.714,-19.493L108.714,-12.035L95.614,-12.035L95.614,-28.255C95.624,-28.961 95.502,-29.663 95.254,-30.324C95.031,-30.913 94.691,-31.45 94.254,-31.903C93.825,-32.342 93.311,-32.689 92.744,-32.924C92.133,-33.175 91.48,-33.309 90.819,-33.319C89.832,-33.324 88.855,-33.119 87.952,-32.719C86.829,-32.194 85.854,-31.399 85.113,-30.405L85.113,-19.49L89.713,-19.49L89.713,-12.032L71.866,-12.032L71.866,-19.49L76.132,-19.49L76.132,-32.773L71.922,-32.773L71.922,-40.23ZM136.77,-24.362L136.853,-23.518C137.04,-22.735 137.395,-22.001 137.892,-21.368C138.376,-20.756 138.962,-20.231 139.623,-19.816C140.308,-19.39 141.056,-19.073 141.839,-18.877C142.644,-18.669 143.472,-18.564 144.304,-18.564C145.096,-18.562 145.887,-18.612 146.672,-18.714C147.403,-18.811 148.129,-18.947 148.846,-19.122C149.548,-19.295 150.231,-19.495 150.896,-19.722C151.561,-19.949 152.235,-20.19 152.918,-20.443L155.965,-14.863C154.912,-14.228 153.947,-13.688 153.07,-13.243C152.218,-12.81 151.333,-12.442 150.425,-12.143C149.505,-11.845 148.559,-11.631 147.6,-11.503C146.442,-11.359 145.276,-11.292 144.11,-11.303C141.836,-11.262 139.576,-11.674 137.462,-12.514C135.622,-13.255 133.956,-14.372 132.573,-15.794C131.245,-17.185 130.218,-18.834 129.554,-20.639C128.856,-22.52 128.504,-24.512 128.515,-26.518C128.501,-28.512 128.872,-30.49 129.609,-32.343C130.312,-34.116 131.362,-35.731 132.698,-37.093C134.057,-38.466 135.677,-39.554 137.462,-40.293C139.412,-41.093 141.504,-41.491 143.611,-41.463C145.664,-41.502 147.705,-41.128 149.611,-40.363C151.286,-39.676 152.793,-38.636 154.029,-37.314C155.246,-35.988 156.188,-34.434 156.799,-32.741C157.457,-30.929 157.813,-29.021 157.852,-27.093C157.908,-26.646 157.941,-26.196 157.952,-25.746C157.961,-25.301 157.947,-24.843 157.91,-24.371L136.77,-24.362ZM143.39,-34.651C142.494,-34.671 141.601,-34.547 140.745,-34.284C140.072,-34.07 139.446,-33.728 138.903,-33.277C138.42,-32.869 138.016,-32.376 137.712,-31.821C137.417,-31.277 137.185,-30.702 137.02,-30.106L149.014,-30.106C148.891,-30.704 148.705,-31.288 148.46,-31.848C148.222,-32.389 147.883,-32.878 147.46,-33.291C146.996,-33.733 146.444,-34.072 145.84,-34.285C145.051,-34.55 144.222,-34.674 143.39,-34.651Z" style="fill:rgb(70,67,66);fill-rule:nonzero;"/>
            </g>
        </g>
    </g>
</svg>
